_site/assets/img/techstack/logo.svg

<svg width="173" height="74" viewBox="0 0 173 74" fill="none" xmlns="http://www.w3.org/2000/svg">
<g clip-path="url(#clip0_219_2127)">
<path d="M88.5668 41.5886C87.7187 41.0043 86.3768 40.0387 85.079 39.1048C83.8645 38.2308 82.7173 37.4054 81.997 36.9074C81.9925 36.9043 81.988 36.9013 81.9834 36.8983L81.8834 36.8315C80.3035 35.7767 79.8266 35.4584 79.8266 33.5431V27.832C79.8266 26.8386 80.4553 25.7317 81.3575 25.7317H88.6472C89.2194 25.7317 89.6832 25.2668 89.6832 24.6934V23.1499C89.6832 22.5765 89.2194 22.1116 88.6472 22.1116H81.3575C78.2103 22.1116 75.6498 24.6777 75.6498 27.832V34.0577C75.6498 36.4877 76.7367 38.2524 79.284 39.9572C81.0258 41.1793 83.1228 42.6954 85.5224 44.4674C87.1438 45.6493 87.6112 46.056 87.6112 47.538V54.7927C87.6112 55.7861 86.9825 56.893 86.0804 56.893H76.7371C76.165 56.893 75.7011 57.3579 75.7011 57.9313V59.4748C75.7011 60.0483 76.165 60.5131 76.7371 60.5131H86.0804C89.2276 60.5131 91.788 57.9469 91.788 54.7927V47.538C91.788 46.3324 91.788 43.8238 88.5668 41.5886Z" fill="#444649"/>
<path d="M109.592 21.9568H104.407C101.314 21.9568 98.6998 24.6482 98.6998 27.8316V54.6386C98.6998 57.8232 101.314 60.5135 104.407 60.5135H109.592C112.686 60.5135 115.3 57.8232 115.3 54.6386V27.8316C115.3 24.6482 112.686 21.9568 109.592 21.9568ZM111.174 54.6386C111.174 55.6591 110.469 56.8927 109.592 56.8927H104.407C103.544 56.8927 102.876 55.6808 102.876 54.6386V27.8316C102.876 26.7895 103.544 25.5776 104.407 25.5776H109.592C110.469 25.5776 111.174 26.8111 111.174 27.8316V54.6386Z" fill="#444649"/>
<path d="M138.545 22.1116H136.492C135.92 22.1116 135.456 22.5765 135.456 23.1499V49.7901L128.718 22.897C128.602 22.4353 128.188 22.1116 127.713 22.1116H124.017C123.445 22.1116 122.981 22.5765 122.981 23.1499V59.4748C122.981 60.0483 123.445 60.5131 124.017 60.5131H126.122C126.694 60.5131 127.158 60.0483 127.158 59.4748V33.8058L133.38 59.7178C133.492 60.1843 133.908 60.5131 134.387 60.5131H138.545C139.117 60.5131 139.581 60.0483 139.581 59.4748V23.1499C139.581 22.5765 139.117 22.1116 138.545 22.1116Z" fill="#444649"/>
<path d="M150.044 25.1472H147.939C147.367 25.1472 146.903 25.6121 146.903 26.1855V30.3531C146.903 30.9266 147.367 31.3915 147.939 31.3915H150.044C150.616 31.3915 151.08 30.9266 151.08 30.3531V26.1855C151.08 25.6121 150.616 25.1472 150.044 25.1472Z" fill="#444649"/>
<path d="M150.044 32.5049H147.939C147.367 32.5049 146.903 32.9698 146.903 33.5432V59.4749C146.903 60.0484 147.367 60.5132 147.939 60.5132H150.044C150.616 60.5132 151.08 60.0484 151.08 59.4749V33.5432C151.08 32.9698 150.616 32.5049 150.044 32.5049Z" fill="#444649"/>
<path d="M171.964 22.1116H164.161C161.014 22.1116 158.453 24.6777 158.453 27.832V54.7927C158.453 57.9469 161.014 60.5131 164.161 60.5131H171.451C172.023 60.5131 172.487 60.0483 172.487 59.4748V57.9313C172.487 57.3579 172.023 56.893 171.451 56.893H164.161C163.259 56.893 162.63 55.7861 162.63 54.7927V27.832C162.63 26.8386 163.259 25.7317 164.161 25.7317H171.964C172.536 25.7317 173 25.2668 173 24.6934V23.1499C173 22.5765 172.536 22.1116 171.964 22.1116Z" fill="#444649"/>
<path d="M45.6421 31.7727C45.6421 31.7727 45.1838 31.7874 44.7241 31.6752C44.6628 31.6592 44.5909 31.6365 44.5123 31.6084C44.5069 31.6071 44.5029 31.6044 44.4976 31.6031C44.4217 31.5817 44.3444 31.563 44.2671 31.5443C44.1139 31.5096 43.958 31.4829 43.8021 31.4642C43.6462 31.4455 43.489 31.4362 43.3318 31.4335C43.1746 31.4308 43.0173 31.4375 42.8614 31.4522C42.7042 31.4655 42.5483 31.4883 42.3938 31.519C42.3165 31.535 42.2392 31.5523 42.1633 31.5724C42.0101 31.6111 41.8582 31.6578 41.7089 31.7126C41.4864 31.7967 41.2679 31.8982 41.0574 32.0171L15.5424 46.5486L15.5411 46.5499L15.5171 46.5632L13.4359 47.7491L13.4319 47.7521C12.9216 48.0806 12.5912 48.6598 12.5912 49.2967C12.5912 49.3835 12.5366 50.8952 12.5366 50.8952V63.0711L4.00271 58.1436C1.21538 56.5518 0.521207 53.6594 0.521207 53.6594C0.112167 52.2399 -0.0224052 50.747 0.00823817 49.2687C0.0149071 48.9536 0.029561 48.6397 0.0495501 48.3259C0.0615365 48.1577 0.0735317 47.9908 0.0881856 47.8225C0.101506 47.6703 0.117493 47.518 0.133481 47.3658C0.136149 47.3498 0.137483 47.3351 0.138816 47.3191C0.250732 46.3082 0.437267 45.3027 0.717063 44.3265C0.774354 44.1235 0.83698 43.9245 0.906266 43.7323C0.918252 43.6975 0.930247 43.6628 0.943567 43.6281L0.955563 43.5947C1.04616 43.3544 1.14609 43.122 1.26067 42.8977C1.26733 42.883 1.27533 42.8683 1.28332 42.8549C1.38192 42.664 1.49117 42.4824 1.61242 42.3074C1.62042 42.2954 1.62841 42.2847 1.6364 42.274C1.6977 42.1859 1.76298 42.1004 1.83093 42.0163C2.10274 41.6691 2.46381 41.37 2.79691 41.1403C2.82222 41.1229 2.84754 41.1056 2.87152 41.0896C2.92215 41.0548 2.97277 41.0228 3.02074 40.9907C3.03007 40.9854 3.03939 40.9787 3.04872 40.9734L3.0767 40.9761L3.66295 40.6409C3.66561 40.6395 3.66694 40.6395 3.66828 40.6395L30.1586 25.5258C31.5536 24.7273 33.267 24.7273 34.662 25.5285L43.4357 30.7231L44.0246 30.8793H43.9993L45.0905 31.4682L45.6421 31.7727Z" fill="url(#paint0_linear_219_2127)"/>
<path d="M45.4636 6.84544C45.4636 6.84544 45.0053 6.86013 44.5456 6.74796C44.4843 6.73194 44.4123 6.70924 44.3337 6.6812C44.3284 6.67986 44.3244 6.67718 44.3191 6.67586C44.2431 6.65449 44.1659 6.63579 44.0886 6.6171C43.9354 6.58238 43.7795 6.55567 43.6236 6.53697C43.4677 6.51828 43.3105 6.50894 43.1532 6.50626C42.996 6.50359 42.8388 6.51026 42.6829 6.52496C42.5257 6.53831 42.3698 6.56101 42.2153 6.59173C42.138 6.60775 42.0607 6.62511 41.9848 6.64514C41.8315 6.68387 41.6796 6.7306 41.5304 6.78535C41.3079 6.86948 41.0894 6.97097 40.8789 7.08982L15.3639 21.6213L15.3626 21.6227L15.3386 21.636L13.2574 22.8218L13.2587 22.8418C12.7484 23.1703 12.4127 23.7325 12.4127 24.3695C12.4127 24.7568 12.5366 25.1146 12.7484 25.4111C12.8577 25.5647 12.4033 25.984 12.4033 25.984V37.8381H10.1809L3.99738 34.2553C1.21005 32.6635 0.515886 29.7711 0.515886 29.7711C0.0908586 28.2955 -0.0357181 26.7398 0.00824366 25.2041C-0.0104028 24.5685 0.00425116 23.9328 0.0442205 23.3025C0.132162 21.9552 0.338679 20.6038 0.711742 19.3031C0.779694 19.0641 0.854307 18.8304 0.938248 18.6047L0.950235 18.5713C1.16608 17.9918 1.44055 17.459 1.82694 16.9929H1.82561C2.09742 16.6457 2.45849 16.3466 2.79158 16.1169C2.83022 16.0902 2.86886 16.0635 2.9075 16.0395L3.69759 15.6081H3.69893L5.30178 14.7361L29.98 0.598585C31.375 -0.199972 33.0885 -0.199972 34.4835 0.601249L43.2905 5.62892L43.8461 5.95208H43.8221L44.912 6.54098L45.4636 6.84544Z" fill="url(#paint1_linear_219_2127)"/>
<path d="M32.3783 36.787V50.1687H32.357C31.8241 50.1647 31.3204 50.0419 30.8634 49.8216C30.8541 49.8162 30.8434 49.8122 30.8341 49.8069L30.4384 49.5772C30.4331 49.5745 30.4291 49.5705 30.4237 49.5678L10.1809 37.8379L3.99738 34.2551C1.21005 32.6634 0.515886 29.771 0.515886 29.771C0.0908586 28.2954 -0.0357181 26.7397 0.00824366 25.204C-0.0104028 24.5684 0.00425116 23.9327 0.0442205 23.3024C0.132162 21.955 0.338679 20.6037 0.711742 19.303C0.779694 19.064 0.854307 18.8303 0.938248 18.6046L0.950235 18.5712C1.16608 17.9917 1.44055 17.4589 1.82561 16.9928C2.09742 16.6456 2.45849 16.3465 2.79158 16.1168C2.83022 16.0901 2.86886 16.0634 2.9075 16.0394C3.26857 15.799 3.57768 15.6481 3.67361 15.6107C3.70159 15.5987 3.71092 15.5987 3.69759 15.608C3.69493 15.6107 3.6896 15.6134 3.68427 15.6174C3.53771 15.7055 3.44178 15.823 3.40448 15.8804C3.28886 16.0291 3.18357 16.1859 3.09252 16.3509C3.01087 16.4988 2.94076 16.6532 2.88499 16.8128C2.83389 16.959 2.7949 17.1095 2.76938 17.2623C2.74547 17.4055 2.7334 17.5506 2.73316 17.6958C2.73294 17.8342 2.74344 17.9726 2.76382 18.1095C2.78343 18.2412 2.81216 18.3716 2.84882 18.4996C2.88413 18.6229 2.92677 18.744 2.97566 18.8625C3.02231 18.9756 3.07464 19.0863 3.1318 19.1944C3.18539 19.2957 3.24322 19.3948 3.30474 19.4915C3.36084 19.5796 3.42001 19.6659 3.48194 19.75C3.53617 19.8238 3.59252 19.8959 3.65088 19.9664C3.69889 20.0244 3.74826 20.0812 3.79905 20.1368C3.83652 20.1778 3.87476 20.2181 3.91392 20.2575C3.94408 20.2878 3.97534 20.3172 4.00967 20.3427C4.0405 20.3657 4.07467 20.3817 4.10706 20.4015C4.12155 20.4104 4.1365 20.4186 4.1512 20.4271L4.25983 20.4901L4.394 20.5678L4.55179 20.6593L4.73129 20.7634L4.93059 20.8789L5.14776 21.0048L5.3809 21.14L5.6281 21.2833L5.88743 21.4336L6.15699 21.5899L6.43486 21.751L6.71914 21.9158L7.00789 22.0832L7.29922 22.2521L7.59121 22.4213L7.88194 22.5899L8.16949 22.7566L8.45197 22.9203L8.72745 23.08L8.99402 23.2346L9.24977 23.3828L9.49277 23.5237L9.72113 23.6561L9.93292 23.7789L10.1262 23.8909L10.2991 23.9912L10.4498 24.0785L10.5761 24.1518L10.6764 24.2099L10.7486 24.2518L10.7909 24.2762L10.8018 24.2826L12.7484 25.411C12.7484 25.411 32.377 36.7857 32.3783 36.787Z" fill="url(#paint2_linear_219_2127)"/>
<path d="M64.5145 19.2818C64.4452 19.0428 64.3706 18.8091 64.2853 18.5834L64.2733 18.55C64.248 18.4819 64.2213 18.4151 64.1934 18.3484C63.9868 17.8463 63.7297 17.3829 63.3846 16.9716C63.1088 16.6244 62.7424 16.3253 62.404 16.0956C61.9883 15.8112 61.6166 15.6309 61.5086 15.5895C61.4727 15.5748 61.4673 15.5775 61.498 15.5962C61.6472 15.6843 61.7444 15.8018 61.7818 15.8592C61.9699 16.1487 62.1578 16.411 62.2758 16.7407C62.3862 17.0489 62.443 17.3754 62.4423 17.7028C62.4411 18.172 62.3232 18.6399 62.1219 19.0622C61.998 19.3221 61.8509 19.5789 61.6452 19.783C61.4214 20.0049 61.1109 20.135 60.841 20.2915L59.8055 20.8917L58.4086 21.7014L56.7114 22.6851L54.7749 23.8076L52.6604 25.0332L50.429 26.3266L48.1419 27.6523L45.8601 28.9748L43.6449 30.2588L41.5573 31.4689L39.6586 32.5694L38.0098 33.5251L36.6722 34.3004L35.7068 34.86L35.1748 35.1683L35.0889 35.2181L32.3776 36.7658V42.0018L32.3775 42.3001V50.1689H32.3869C32.9078 50.1689 33.4008 50.0554 33.8445 49.8498C33.8578 49.8444 33.8712 49.8377 33.8831 49.8311L34.3788 49.544L54.046 38.1479V48.6813L32.3775 61.2458L32.3549 61.2592V73.9999H32.3842C32.9052 73.9999 33.3981 73.8864 33.8418 73.6808L34.4267 73.3403L61.0729 57.8326C63.8603 56.2408 64.5544 53.3484 64.5544 53.3484C64.8702 52.2534 65.0221 51.113 65.0607 49.9713V23.1883C65.0607 22.5347 65.0685 21.9101 64.9615 21.263C64.851 20.5947 64.7041 19.9321 64.5145 19.2818Z" fill="url(#paint3_linear_219_2127)"/>
<path d="M32.3837 73.1988V74H32.3543C31.8214 73.996 31.3178 73.8731 30.8661 73.6555C30.8647 73.6555 30.8634 73.6541 30.8607 73.6528L4.00271 58.1438C1.21538 56.552 0.521207 53.6596 0.521207 53.6596C0.112167 52.2401 -0.0224053 50.7472 0.00823817 49.2689C0.0149071 48.9538 0.029561 48.64 0.0495501 48.3262C0.0615365 48.1579 0.0735317 47.991 0.0881856 47.8227C0.101506 47.6705 0.117493 47.5183 0.133481 47.366C0.136149 47.35 0.137483 47.3353 0.138816 47.3193C0.250732 46.3084 0.437267 45.3029 0.717063 44.3267C0.774354 44.1237 0.83698 43.9248 0.906266 43.7325C0.918252 43.6978 0.930247 43.663 0.943567 43.6283L0.955563 43.5949C1.04616 43.3546 1.14609 43.1222 1.26067 42.8979C1.26733 42.8832 1.27533 42.8685 1.28332 42.8552C1.38192 42.6642 1.49117 42.4826 1.61242 42.3076C1.62042 42.2956 1.62841 42.2849 1.6364 42.2743C1.6977 42.1861 1.76298 42.1007 1.83093 42.0165C2.10274 41.6693 2.46381 41.3702 2.79691 41.1405C2.82222 41.1232 2.84754 41.1058 2.87152 41.0898C2.92215 41.0551 2.97277 41.023 3.02074 40.991C3.03007 40.9856 3.03939 40.9789 3.04872 40.9736C3.21793 40.8695 3.36716 40.7867 3.48174 40.7266C3.56169 40.6852 3.6243 40.6571 3.66295 40.6411C3.66561 40.6398 3.66694 40.6398 3.66827 40.6398C3.67227 40.6371 3.67627 40.6358 3.67894 40.6344C3.7149 40.6197 3.72024 40.6224 3.68959 40.6411C3.54303 40.7292 3.4471 40.8467 3.40447 40.9055C3.40579 40.9055 3.40846 40.9055 3.40979 40.9042C3.02874 41.3929 2.83554 41.875 2.76892 42.329C2.76892 42.3317 2.77025 42.3357 2.77025 42.3384C2.76625 42.3904 2.76492 42.4439 2.76492 42.4973C2.76492 43.0274 2.92747 43.5589 3.24857 43.9809C3.6363 44.491 32.377 61.2419 32.377 61.2419V62.0431L32.3796 66.1667L32.3837 73.1988Z" fill="url(#paint4_linear_219_2127)"/>
</g>
<defs>
<linearGradient id="paint0_linear_219_2127" x1="0.00405816" y1="43.9992" x2="45.6421" y2="43.9992" gradientUnits="userSpaceOnUse">
<stop stop-color="#00314E"/>
<stop offset="1" stop-color="#007F94"/>
</linearGradient>
<linearGradient id="paint1_linear_219_2127" x1="3.83334e-07" y1="18.919" x2="45.4636" y2="18.919" gradientUnits="userSpaceOnUse">
<stop offset="0.06154" stop-color="#29617A"/>
<stop offset="0.55898" stop-color="#7BD9EF"/>
</linearGradient>
<linearGradient id="paint2_linear_219_2127" x1="3.83334e-07" y1="32.885" x2="32.3783" y2="32.885" gradientUnits="userSpaceOnUse">
<stop stop-color="#34E4FF"/>
<stop offset="1" stop-color="#29617A"/>
</linearGradient>
<linearGradient id="paint3_linear_219_2127" x1="32.3549" y1="44.79" x2="65.0609" y2="44.79" gradientUnits="userSpaceOnUse">
<stop stop-color="#349DFF"/>
<stop offset="1" stop-color="#29617A"/>
</linearGradient>
<linearGradient id="paint4_linear_219_2127" x1="0.00405993" y1="57.3125" x2="32.3837" y2="57.3125" gradientUnits="userSpaceOnUse">
<stop stop-color="#34E4FF"/>
<stop offset="1" stop-color="#29617A"/>
</linearGradient>
<clipPath id="clip0_219_2127">
<rect width="173" height="74" fill="white"/>
</clipPath>
</defs>
</svg>

<svg width="173" height="74" fill="none" xmlns="http://www.w3.org/2000/svg"><g clip-path="url(#clip0_219_2127)"><path d="M88.567 41.589c-.848-.585-2.19-1.55-3.488-2.484a244.3 244.3 0 00-3.096-2.207l-.1-.067c-1.58-1.054-2.056-1.373-2.056-3.288v-5.711c0-.993.628-2.1 1.53-2.1h7.29c.572 0 1.036-.465 1.036-1.039V23.15c0-.573-.464-1.038-1.036-1.038h-7.29c-3.147 0-5.707 2.566-5.707 5.72v6.226c0 2.43 1.087 4.194 3.634 5.9a325.672 325.672 0 016.238 4.51c1.622 1.181 2.09 1.588 2.09 3.07v7.255c0 .993-.63 2.1-1.532 2.1h-9.343c-.572 0-1.036.465-1.036 1.038v1.544c0 .573.464 1.038 1.036 1.038h9.343c3.148 0 5.708-2.566 5.708-5.72v-7.255c0-1.206 0-3.714-3.221-5.95zm21.025-19.632h-5.185c-3.093 0-5.707 2.691-5.707 5.875v26.807c0 3.184 2.614 5.874 5.707 5.874h5.185c3.094 0 5.708-2.69 5.708-5.874V27.832c0-3.184-2.614-5.875-5.708-5.875zm1.582 32.682c0 1.02-.705 2.254-1.582 2.254h-5.185c-.863 0-1.531-1.212-1.531-2.254V27.832c0-1.043.668-2.254 1.531-2.254h5.185c.877 0 1.582 1.233 1.582 2.254v26.807zm27.371-32.527h-2.053c-.572 0-1.036.465-1.036 1.038v26.64l-6.738-26.893a1.037 1.037 0 00-1.005-.785h-3.696c-.572 0-1.036.465-1.036 1.038v36.325c0 .573.464 1.038 1.036 1.038h2.105c.572 0 1.036-.465 1.036-1.038v-25.67l6.222 25.913c.112.466.528.795 1.007.795h4.158c.572 0 1.036-.465 1.036-1.038V23.15c0-.573-.464-1.038-1.036-1.038zm11.499 3.035h-2.105c-.572 0-1.036.465-1.036 1.039v4.167c0 .574.464 1.038 1.036 1.038h2.105c.572 0 1.036-.464 1.036-1.038v-4.168c0-.573-.464-1.038-1.036-1.038zm0 7.358h-2.105c-.572 0-1.036.465-1.036 1.038v25.932c0 .573.464 1.038 1.036 1.038h2.105c.572 0 1.036-.465 1.036-1.038V33.543c0-.573-.464-1.038-1.036-1.038zm21.92-10.393h-7.803c-3.147 0-5.708 2.566-5.708 5.72v26.96c0 3.155 2.561 5.721 5.708 5.721h7.29c.572 0 1.036-.465 1.036-1.038V57.93c0-.573-.464-1.038-1.036-1.038h-7.29c-.902 0-1.531-1.107-1.531-2.1v-26.96c0-.993.629-2.1 1.531-2.1h7.803c.572 0 1.036-.465 1.036-1.039V23.15c0-.573-.464-1.038-1.036-1.038z" fill="#444649"/><path d="M45.642 31.773s-.458.014-.918-.098a2.584 2.584 0 01-.212-.067c-.005 0-.01-.004-.014-.005a4.577 4.577 0 00-1.166-.17 4.24 4.24 0 00-.47.02 4.227 4.227 0 00-.699.12 4.562 4.562 0 00-.454.14 4.716 4.716 0 00-.652.304L15.542 46.55l-.025.014-2.081 1.186-.004.003c-.51.329-.84.908-.84 1.545 0 .087-.055 1.598-.055 1.598v12.176l-8.534-4.927C1.215 56.552.52 53.659.52 53.659c-.409-1.42-.543-2.912-.513-4.39a22.215 22.215 0 01.13-1.95 18.2 18.2 0 01.58-2.992 8.816 8.816 0 01.226-.699l.012-.033a6.803 6.803 0 01.327-.74 4.933 4.933 0 01.548-.839c.272-.347.633-.646.966-.876l.075-.05c.05-.035.1-.067.149-.1l.028-.017.028.003.586-.335.005-.002 26.49-15.113a4.526 4.526 0 014.504.003l8.774 5.194.589.156h-.026l1.091.59.552.304z" fill="url(#paint0_linear_219_2127)"/><path d="M45.464 6.845s-.459.015-.918-.097a2.615 2.615 0 01-.212-.067l-.015-.005a4.571 4.571 0 00-1.166-.17 4.245 4.245 0 00-.47.019 4.234 4.234 0 00-.698.12 4.567 4.567 0 00-.455.14 4.725 4.725 0 00-.651.305L15.364 21.62l-.001.002-.024.013-2.082 1.186.002.02c-.51.328-.846.89-.846 1.527 0 .388.124.746.335 1.042.11.154-.345.573-.345.573v11.854h-2.222l-6.184-3.583C1.21 32.663.516 29.771.516 29.771.09 28.295-.036 26.74.008 25.204a20.55 20.55 0 01.036-1.902c.088-1.347.295-2.698.668-3.999.068-.239.142-.473.226-.698l.012-.034c.216-.58.49-1.112.877-1.578h-.001c.271-.347.632-.646.966-.876.038-.027.077-.053.116-.078l.79-.43 1.604-.873L29.98.6a4.526 4.526 0 014.503 0l8.808 5.028.555.323h-.024l1.09.589.552.304z" fill="url(#paint1_linear_219_2127)"/><path d="M32.378 36.787v13.382h-.021a3.482 3.482 0 01-1.494-.347c-.009-.006-.02-.01-.029-.015l-.396-.23c-.005-.002-.009-.006-.014-.01L10.18 37.838l-6.184-3.582C1.21 32.663.516 29.771.516 29.771.09 28.295-.036 26.74.008 25.204a20.55 20.55 0 01.036-1.902c.088-1.347.295-2.698.668-3.999.068-.239.142-.473.226-.698l.012-.034c.216-.58.49-1.112.876-1.578.271-.347.632-.646.966-.876.038-.027.077-.054.116-.078.36-.24.67-.39.766-.428.028-.012.037-.012.024-.003l-.014.01a.911.911 0 00-.28.262c-.115.15-.22.306-.311.47a3.015 3.015 0 00-.208.463 2.723 2.723 0 00-.152.883 2.781 2.781 0 00.116.804 3.423 3.423 0 00.283.694 4.299 4.299 0 00.35.556 4.754 4.754 0 00.432.508c.03.03.061.06.096.085.03.023.065.039.097.058l.044.026.109.063.134.078.158.091.18.104.199.116.217.126.233.135.247.143.26.15.269.157.278.161.284.165.289.167.291.17.292.168.29.169.288.167.283.163.275.16.267.155.256.148.243.14.228.133.212.123.193.112.173.1.15.087.127.074.1.058.073.042.042.024.01.007 1.947 1.128 19.63 11.376z" fill="url(#paint2_linear_219_2127)"/><path d="M64.514 19.282a9.31 9.31 0 00-.229-.699l-.012-.033a5.345 5.345 0 00-.08-.202 5.17 5.17 0 00-.808-1.376c-.276-.348-.643-.647-.981-.876a5.409 5.409 0 00-.895-.507c-.036-.014-.042-.011-.011.007a.91.91 0 01.284.263c.188.29.376.552.494.882.11.308.167.634.166.962 0 .469-.119.937-.32 1.36-.124.26-.271.516-.477.72-.224.222-.534.352-.804.508l-1.035.6-1.397.81-1.698.984-1.936 1.123-2.115 1.225-2.231 1.294-2.287 1.325-2.282 1.323-2.215 1.284-2.088 1.21-1.898 1.1-1.65.956-1.337.775-.965.56-.532.308-.086.05-2.711 1.548v13.403h.009a3.454 3.454 0 001.496-.338l.496-.287 19.667-11.396V48.68L32.377 61.246l-.022.013V74h.03c.52 0 1.013-.113 1.457-.318l.585-.34 26.646-15.508c2.787-1.592 3.481-4.485 3.481-4.485.316-1.095.468-2.235.507-3.377V23.188c0-.653.007-1.278-.1-1.925-.11-.668-.257-1.33-.447-1.981z" fill="url(#paint3_linear_219_2127)"/><path d="M32.384 73.199V74h-.03a3.477 3.477 0 01-1.488-.344l-.005-.003-26.858-15.51C1.215 56.553.52 53.66.52 53.66c-.409-1.42-.543-2.913-.513-4.391a22.21 22.21 0 01.08-1.446c.014-.153.03-.305.045-.457a18.098 18.098 0 01.584-3.04 8.378 8.378 0 01.227-.698l.012-.033a6.803 6.803 0 01.327-.74 4.925 4.925 0 01.548-.838c.272-.348.633-.647.966-.877l.075-.05c.05-.035.1-.067.149-.099l.028-.017a7.35 7.35 0 01.433-.247c.08-.042.142-.07.18-.086l.006-.001.01-.006c.037-.014.042-.012.012.007a1 1 0 00-.286.265c.002 0 .004 0 .006-.002-.381.489-.574.971-.641 1.425l.001.01a2.46 2.46 0 00.478 1.642c.388.51 29.129 17.26 29.129 17.26v.802l.003 4.124.004 7.032z" fill="url(#paint4_linear_219_2127)"/></g><defs><linearGradient id="paint0_linear_219_2127" x1=".004" y1="43.999" x2="45.642" y2="43.999" gradientUnits="userSpaceOnUse"><stop stop-color="#00314E"/><stop offset="1" stop-color="#007F94"/></linearGradient><linearGradient id="paint1_linear_219_2127" x1="0" y1="18.919" x2="45.464" y2="18.919" gradientUnits="userSpaceOnUse"><stop offset=".062" stop-color="#29617A"/><stop offset=".559" stop-color="#7BD9EF"/></linearGradient><linearGradient id="paint2_linear_219_2127" x1="0" y1="32.885" x2="32.378" y2="32.885" gradientUnits="userSpaceOnUse"><stop stop-color="#34E4FF"/><stop offset="1" stop-color="#29617A"/></linearGradient><linearGradient id="paint3_linear_219_2127" x1="32.355" y1="44.79" x2="65.061" y2="44.79" gradientUnits="userSpaceOnUse"><stop stop-color="#349DFF"/><stop offset="1" stop-color="#29617A"/></linearGradient><linearGradient id="paint4_linear_219_2127" x1=".004" y1="57.313" x2="32.384" y2="57.313" gradientUnits="userSpaceOnUse"><stop stop-color="#34E4FF"/><stop offset="1" stop-color="#29617A"/></linearGradient><clipPath id="clip0_219_2127"><path fill="#fff" d="M0 0h173v74H0z"/></clipPath></defs></svg>
